X:227
T:New Long Room At Scarborough, The
S: A First Collection of Yorkshire Dance Music, David Aston & Chris Dyson
M:9/8
L:1/8
R:slip jig
K:Gmaj
|:"G" G2G GBG "Em" Bcd|"G" G2G GBG "D" AFD|"G" G2G GBG "Em" Bcd|"C" EFE EFG "D" AFD:|
|:"G" g2g gag "D" fed|"G" g2g gfg "D" afd|"G" g2g gag "D" fed|"C" efg "G" dBG "D" AFD:|
|:"G" BGB "Em" BGB "C" c2d|"G" BGB "Em"BGB "D" AFD|"G" BGB "Em" BGB "C" c2d|"Em" EFE "C" EFG "D" AFD:|

